app/assets/images/heroicons/mini/arrow-turn-right-down.svg

<svg width="20" height="20" viewBox="0 0 20 20" fill="none" xmlns="http://www.w3.org/2000/svg">
<path fill-rule="evenodd" clip-rule="evenodd" d="M3 3.75C3 4.16421 3.33579 4.5 3.75 4.5L11.25 4.5L11.25 15.4393L9.28033 13.4697C8.98744 13.1768 8.51256 13.1768 8.21967 13.4697C7.92678 13.7626 7.92678 14.2374 8.21967 14.5303L11.4697 17.7803C11.7626 18.0732 12.2374 18.0732 12.5303 17.7803L15.7803 14.5303C16.0732 14.2374 16.0732 13.7626 15.7803 13.4697C15.4874 13.1768 15.0126 13.1768 14.7197 13.4697L12.75 15.4393L12.75 3.75C12.75 3.33579 12.4142 3 12 3L3.75 3C3.33579 3 3 3.33579 3 3.75Z" fill="black"/>
</svg>

<svg xmlns="http://www.w3.org/2000/svg" viewBox="0 0 20 20" fill="currentColor" aria-hidden="true" data-slot="icon">
  <path fill-rule="evenodd" d="M3 3.75c0 .414.336.75.75.75h7.5v10.94l-1.97-1.97a.75.75 0 0 0-1.06 1.06l3.25 3.25a.75.75 0 0 0 1.06 0l3.25-3.25a.75.75 0 1 0-1.06-1.06l-1.97 1.97V3.75A.75.75 0 0 0 12 3H3.75a.75.75 0 0 0-.75.75Z" clip-rule="evenodd"/>
</svg>
